Yaru++/status/symbolic/camera-disabled-symbolic.svg

<svg height="16" width="16" xmlns="http://www.w3.org/2000/svg"><g fill="#808080"><path d="m18.985729-3.8326868-1.061 1.061 14 14.0000008 1.062-1.062z" transform="translate(-17.424729 4.271686)"/><path d="m4.0371094 1.5.9628906.9628906v-.9628906zm1 1 1 1h5.9628906c1.259.015 2.087125.0597187 2.453125.2617188.184.1009999.289719.2136562.386719.4726562.097.26.160156.673625.160156 1.265625v6c0 .372162-.029675.65124-.072266.888672l.8125.8125a1.88 1.88 0 0 0 .035157-.083984c.164-.438001.224609-.960188.224609-1.617188v-6c0-.658-.059609-1.1781875-.224609-1.6171875a1.88 1.88 0 0 0 -.837891-.9980469c-.753-.416-1.673641-.3697656-2.931641-.3847656zm-4.31445315.6367188a1.88 1.88 0 0 0 -.49804687.7460937c-.165.439-.22460938.9601875-.22460938 1.6171875v6c0 .658.05960938 1.179188.22460938 1.617188.164.439.46089062.790046.83789062.998046.752.416 1.6736406.369766 2.9316406.384766h8.0117184c.029669-.00033.048829-.001681.078125-.001953l-.998046-.998047h-7.085938c-1.259-.015-2.0900781-.059719-2.4550781-.261719-.183-.1-.2867657-.212656-.3847657-.472656-.0969999-.26-.1601562-.673625-.1601562-1.265625v-6c0-.592.0631563-1.005625.1601562-1.265625.073839-.1958992.1615614-.3005385.2734376-.3867188zm7.27734375 1.3632812a4 4 0 0 0 -.8652344.0976562l.9042969.9042969a3 3 0 0 1 2.9589845 2.9589844l.902344.9003906a4 4 0 0 0 .099609-.8613281 4 4 0 0 0 -4-4zm5.5 0a.5.5 0 0 0 -.5.5.5.5 0 0 0 .5.5.5.5 0 0 0 .5-.5.5.5 0 0 0 -.5-.5zm-9.1152344 2.2988281a4 4 0 0 0 -.3847656 1.7011719 4 4 0 0 0 4 4 4 4 0 0 0 1.7011719-.384766l-.7675781-.767578a3 3 0 0 1 -.9335938.152344 3 3 0 0 1 -3-3 3 3 0 0 1 .1523438-.9335938zm1.6171875 1.6171875a2 2 0 0 0 -.0019531.0839844 2 2 0 0 0 2 2 2 2 0 0 0 .0820312-.003906z" opacity=".5"/></g></svg>

<?xml version="1.0" encoding="UTF-8" standalone="no"?>
<svg
   xmlns:dc="http://purl.org/dc/elements/1.1/"
   xmlns:cc="http://creativecommons.org/ns#"
   xmlns:rdf="http://www.w3.org/1999/02/22-rdf-syntax-ns#"
   xmlns:svg="http://www.w3.org/2000/svg"
   xmlns="http://www.w3.org/2000/svg"
   xmlns:sodipodi="http://sodipodi.sourceforge.net/DTD/sodipodi-0.dtd"
   xmlns:inkscape="http://www.inkscape.org/namespaces/inkscape"
   width="16"
   height="16"
   version="1.1"
   id="svg4"
   sodipodi:docname="camera-disabled-symbolic.svg"
   inkscape:version="0.92.4 (5da689c313, 2019-01-14)">
  <metadata
     id="metadata10">
    <rdf:RDF>
      <cc:Work
         rdf:about="">
        <dc:format>image/svg+xml</dc:format>
        <dc:type
           rdf:resource="http://purl.org/dc/dcmitype/StillImage" />
        <dc:title></dc:title>
      </cc:Work>
    </rdf:RDF>
  </metadata>
  <defs
     id="defs8" />
  <sodipodi:namedview
     pagecolor="#ffffff"
     bordercolor="#666666"
     borderopacity="1"
     objecttolerance="10"
     gridtolerance="10"
     guidetolerance="10"
     inkscape:pageopacity="0"
     inkscape:pageshadow="2"
     inkscape:window-width="1920"
     inkscape:window-height="1016"
     id="namedview6"
     showgrid="false"
     inkscape:zoom="14.75"
     inkscape:cx="8"
     inkscape:cy="8"
     inkscape:window-x="0"
     inkscape:window-y="27"
     inkscape:window-maximized="1"
     inkscape:current-layer="svg4" />
  <g
     id="g821"
     style="fill:#808080;fill-opacity:1"
     transform="translate(-17.424729,4.2716864)">
    <path
       id="path817"
       d="m 18.985729,-3.8326868 -1.061,1.061 14,14.0000008 1.062,-1.062 z"
       inkscape:connector-curvature="0"
       style="fill:#808080;fill-opacity:1" />
  </g>
  <path
     style="color:#000000;font-weight:400;line-height:normal;font-family:sans-serif;font-variant-ligatures:normal;font-variant-position:normal;font-variant-caps:normal;font-variant-numeric:normal;font-variant-alternates:normal;font-feature-settings:normal;text-indent:0;text-align:start;text-decoration:none;text-decoration-line:none;text-decoration-style:solid;text-decoration-color:#000000;text-transform:none;text-orientation:mixed;white-space:normal;shape-padding:0;overflow:visible;isolation:auto;mix-blend-mode:normal;fill:#808080;marker:none;opacity:0.5"
     d="M 4.0371094 1.5 L 5 2.4628906 L 5 1.5 L 4.0371094 1.5 z M 5.0371094 2.5 L 6.0371094 3.5 L 12 3.5 C 13.259 3.515 14.087125 3.5597187 14.453125 3.7617188 C 14.637125 3.8627187 14.742844 3.975375 14.839844 4.234375 C 14.936844 4.494375 15 4.908 15 5.5 L 15 11.5 C 15 11.872162 14.970325 12.15124 14.927734 12.388672 L 15.740234 13.201172 A 1.88 1.88 0 0 0 15.775391 13.117188 C 15.939391 12.679187 16 12.157 16 11.5 L 16 5.5 C 16 4.842 15.940391 4.3218125 15.775391 3.8828125 A 1.88 1.88 0 0 0 14.9375 2.8847656 C 14.1845 2.4687656 13.263859 2.515 12.005859 2.5 L 5.0371094 2.5 z M 0.72265625 3.1367188 A 1.88 1.88 0 0 0 0.22460938 3.8828125 C 0.059609375 4.3218125 1.8503717e-17 4.843 0 5.5 L 0 11.5 C 0 12.158 0.059609375 12.679188 0.22460938 13.117188 C 0.38860938 13.556188 0.6855 13.907234 1.0625 14.115234 C 1.8145 14.531234 2.7361406 14.485 3.9941406 14.5 L 12.005859 14.5 C 12.035528 14.49967 12.054688 14.498319 12.083984 14.498047 L 11.085938 13.5 L 4 13.5 C 2.741 13.485 1.9099219 13.440281 1.5449219 13.238281 C 1.3619219 13.138281 1.2581562 13.025625 1.1601562 12.765625 C 1.0631563 12.505625 1 12.092 1 11.5 L 1 5.5 C 1 4.908 1.0631563 4.494375 1.1601562 4.234375 C 1.2339952 4.0384758 1.3217176 3.9338365 1.4335938 3.8476562 L 0.72265625 3.1367188 z M 8 4.5 A 4 4 0 0 0 7.1347656 4.5976562 L 8.0390625 5.5019531 A 3 3 0 0 1 10.998047 8.4609375 L 11.900391 9.3613281 A 4 4 0 0 0 12 8.5 A 4 4 0 0 0 8 4.5 z M 13.5 4.5 A 0.5 0.5 0 0 0 13 5 A 0.5 0.5 0 0 0 13.5 5.5 A 0.5 0.5 0 0 0 14 5 A 0.5 0.5 0 0 0 13.5 4.5 z M 4.3847656 6.7988281 A 4 4 0 0 0 4 8.5 A 4 4 0 0 0 8 12.5 A 4 4 0 0 0 9.7011719 12.115234 L 8.9335938 11.347656 A 3 3 0 0 1 8 11.5 A 3 3 0 0 1 5 8.5 A 3 3 0 0 1 5.1523438 7.5664062 L 4.3847656 6.7988281 z M 6.0019531 8.4160156 A 2 2 0 0 0 6 8.5 A 2 2 0 0 0 8 10.5 A 2 2 0 0 0 8.0820312 10.496094 L 6.0019531 8.4160156 z "
     id="path2-3" />
  <g
     transform="translate(-17.424729,4.2716864)"
     style="fill:#808080;fill-opacity:1;stroke:#000000;stroke-opacity:1;stroke-width:2;stroke-miterlimit:4;stroke-dasharray:none"
     id="g880" />
</svg>
